X:1
T:James Gibb editions
T:Psalm 124 (Becker) - Schütz
%%score [ ( 1 2 ) ( 3 4 ) ]
L:1/8
Q:1/4=98
M:2/2
K:F
V:1 treble nm="Soprano Alto"
V:2 treble 
V:3 bass nm="Tenor Bass"
V:4 bass 
V:1
"^Cornelius Becker\n(1561-1604)""^Psalm 124, SWV 229""^Heinrich Schütz\n(1585-1672)" G4 B2 B2 | %1
w: ~Wär Gott nicht|
w: wär Gott nicht|
 c2 d2 c2 =B2 | c4 c4 | B2 G2 B2 d2 | (cB c2) B4 :| c4 d2 c2 |[M:2/2] A2 B2 c2 (BA) | G4 G4 | %8
w: mit uns die- se|Zeit, so|soll Is- ra- el|sa\- * * gen,||ar- mes Häuf- lein *|sind, ver-|
w: mit uns die- se|Zeit, wir|hat- ten müss'n ver-|za\- * * gen,||||
 c2 B2 c2 d2 | B2 (AG) F4 | F4 B2 c2 | d2 B2 (AG A2) | G8 |] %13
w: acht von so viel|Men- schen\- * kind,|die an uns|set- zen al\- * *|le.|
w: |||||
V:2
 D4 _E2 F2 | G2 G2 _E2 D2 | =E4 _E4 | D2 _E2 F2 F2 | (FD F2) F4 :| F4 F2 E2 |[M:2/2] C2 D2 _E2 D2 | %7
w: |||||die so ein||
 D4 D4 | F2 D2 C2 F2 | _E2 C2 C4 | D4 D2 F2 | F2 G (D2 B, D2) | D8 |] %13
w: ||||||
V:3
 B,4 G,2 D2 | _E2 D2 G,2 G,2 | G,4 G,4 | G,2 B,2 D2 B,2 | (A, B,2 A,) B,4 :| A,4 B,2 G,2 | %6
[M:2/2] F,2 F,2 G,3 ^F, | G,4 B,4 | %8
 A,2 F,2 A,2"^2. Auf uns so zornig ist ihr Sinn, wenn Gott hätt das zugeben,\nverschlungen hätten sie uns hin, mit ganzem Leib und Leben,\nwir wär'n als die ein Flut ersäuft, und über die groß Wasser läuft\nund mit Gewalt verschwemmet.\n\n3. Gott Lob und Dank, der nicht zugab, daß ihr Schlund uns möchte fangen,\nwie ein Vogel vom Strick kommt ab, ist unsre Seel entgangen.\nStrick ist entzwei und wir sind frei, des Herren Namen steht uns bei,\ndes Gotts Himmels und Erden." A,2 | %9
 G,2 (F,_E,) F,4 | A,4 G,2 A,2 | (B,>CD)G, (^F, G,2 F,) | G,8 |] %13
V:4
 G,4 _E,2 D,2 | C,2 =B,,2 C,2 G,2 | C,4 C,4 | G,2 _E,2 B,,2 B,,2 | (F,G, F,2) B,,4 :| %5
 F,4 B,,2 C,2 |[M:2/2] F,2 D,2 C,2 (G,,D,) | G,,4 G,4 | F,2 B,,2 F,2 D,2 | _E,2 (F,C,) F,,4 | %10
 D,4 G,2 F,2 | B,,2 G,,2 (D,_E, D,2) | G,,8 |] %13

